X:1
T:A minor Ebenezer Child, 1804
T:Isaac Watts, 1719 (Psalm 144, Part 2)   86. 86. (C. M.)  
T:Bennington
T:Transcribed from The Sacred Musician, 1804.
%%score [ 1 2 3 4 ]
L:1/8
M:4/4
K:C
V:1 treble nm="Voice"
V:2 treble nm="Voice"
V:3 treble-8 nm="Tenor"
V:4 bass nm="Bass"
V:1
 e4 | cd cd ef ed | c2 A2 B2 AG | A2 A2 (B2 B2 | e>f ed c2) B2 | A6 z2 | z8 | z4 z2 A2 | %8
w: 1.~~Lord,|what * is * man, * poor *|fee- ble man, Born *|of the earth~ _|_ _ _ _ _ at|first?||His|
w: 2.~~O|what * is * fee- * ble, *|dy- ing man, Or *|a- ny of~ _|_ _ _ _ _ his|race?||That|
w: 3.~~That|God * who * darts * his *|light- nings down, Who *|shakes the world~ _|_ _ _ _ _ a-|bove,||And|
 B2 B2 c2 c2 | d2 dc B2 B2 | c2 c2 Bc d2 | e6 e2 | c2 c2 B2 B2 | e2 c2 d2 d2 | (edcB A2) A2 | %15
w: life a sha- dow,|light and * vain, Still|ha- sting to * the|dust. His|life a sha- dow,|light and vain, Still|ha- * * * * sting|
w: God should make it|his con- * cern To|vi- sit him * with|grace? That|God should make it|his con- cern To|vi- * * * * sit|
w: moun- tains trem- ble|at his * frown, How|won- drous is * his|love! And|moun- tains trem- ble|at his frown; How|won- * * * * drous|
 B2 B2 c4- | c2 c2 d2 d2 | d2 B2 cd cB | AG AB c2 B2 | (e>f e>d c2) B2 | A8 |] %21
w: to the dust,~|_ His life a|sha- dow, light * and *|vain, * Still * ha- sting|to~ _ _ _ _ the|dust.|
w: him with grace?~|_ That God should|make it his * con- *|cern * To * vi- sit|him~ _ _ _ _ with|grace.|
w: is his love!~|_ And moun- tains|trem- ble at * his *|frown; * How * won- drous|is~ _ _ _ _ his|love!|
V:2
 A4 | B2 B2 A2 A2 | EF EF G2 G2 | E2 EF (G2 GF | EF G2 A2) GF | E6 z2 | z8 | z8 | z4 z2 E2 | %9
w: |||||first?|||His|
w: |||||race?|||That|
w: |||||bove,|||And|
 F2 F2 E2 E2 | A2 GF E2 E2 | E2 E2 F2 F2 | G6 E2 | A2 A2 G2 E2 | D2 D2 E2 E2 | EF G2 G2 G2 | %16
w: life a sha- dow,|light and * vain, Still|has- ting to the|dust, His|life a sha- dow.|light and vain, Still|has- * ting to the|
w: God should make it|his con- * cern To|vi- sit him with|grace, That|God should make it|his con- cern To|vi- * sit him with|
w: moun- tains trem- ble|at his * frown; How|won- drous is his|love! And|moun- tains trem- ble|at his frown; How|won- * drous is his|
 G6 G2 | G2 G2 E2 EF | G2 G2 E2 E2 | E2 F2 E2 E2 | E8 |] %21
w: dust. His|life a sha- dow, *|light and vain, Still|has- ting to the|dust.|
w: grace, That|God should make it *|his con- cern To|vis- it him with|grace?|
w: love! And|moun- tains trem- ble *|at his frown; How|won- drous is his|love!|
V:3
 A4 | e>f e>d c>d c>B | A2 c2 B2 cd | e2 c2 (d2 B2 | c>dcB A2) G2 | A6 AB | c2 c2 c2 Bc | %7
w: 1.~~Lord,|what * is * man, * poor *|fee- ble man, Born *|of the earth~ _|_ _ _ _ _ at|first? His *|life a sha- dow, *|
w: 2.~~O|what * is * fee- * ble, *|dy- ing man, Or *|a- ny of~ _|_ _ _ _ _ his|race? That *|God should make it *|
w: 3.~~That|God * who * darts * his *|light- nings down, Who *|shakes the worlds~ _|_ _ _ _ _ a-|bove, And *|moun- tains trem- ble *|
 d2 d2 d2 cd | e2 e2 e2 e2 | (fedc e2) e2 | e2 e2 fe dc | ed cB (cBAG | A2) A2 e2 e2 | c2 c2 d4- | %14
w: light and vain, still *|has- ting to the|dust,~ _ _ _ _ His|life a sha- * dow, *|light * and * vain,~ _ _ _|_ Still has- ting|to the dust,~|
w: his con- cern to *|vi- sit him with|grace?~ _ _ _ _ That|God should make * it *|his * con- * cern~ _ _ _|_ To vi- sit|him with grace?~~|
w: at his frown; How *|won- drous is his|love!~ _ _ _ _ And|moun- tains trem- * ble *|at * his * frown;~ _ _ _|_ How won- drous|is his love!~|
 d2 d2 e2 ef | g2 g2 g4- | g2 e2 fg fe | d2 d2 ed cd | e2 e2 e>f e>d | (c>d c>B A2) G2 | A8 |] %21
w: _ Still has- ting *|to the dust,~|_ His life * a *|sha- dow, light * and *|vain, Still has- * ting *|to~ _ _ _ _ the|dust.|
w: _ To vi- sit *|him with grace?~|_ That God * should *|make it his * con- *|cern To vi- * sit *|him~ _ _ _ _ with|grace?|
w: _ How won- drous *|is his love!~|_ And moun- * tains *|trem- ble at * his *|frown; How won- * drous *|is~ _ _ _ _ his|love!|
V:4
 A,4 | E,2 E,2 A,2 A,2 | A,2 A,2 G,2 [G,C]2 | A,2 A,2 (G,2 G,2 | C,D, E,2 A,2) E,2 | [A,,A,]6 z2 | %6
w: ||||||
w: ||||||
w: ||||||
 z4 z2 A,2 | G,2 G,2 G,2 D,2 | E,2 E,2 C,2 C,2 | D,2 D,2 E,2 E,2 | A,2 C2 B,A, G,A, | %11
w: 1.~~His|life a sha- dow,|light and vain, Still|has- ting to the|dust; Still has- * ting *|
w: 2.~~That|God should make it|his con- cern To|vi- sit him with|grace? To vi- * sit *|
w: 3.~And|moun- tains trem- ble|at his frown; How|won- drous is his|love! How won- * drous *|
 E,2 E,2 (F,E, D,2 | C,2) C,2 E,2 E,2 | A,2 A,2 G,2 G,2 | G,2 G,2 (A,4 | G,2) E,2 C,4- | %16
w: to the dust,~ _ _|_ Still has- ting,|has- ting, has- ting,|has- ting, to~|_ the dust|
w: him with grace?~ _ _|_ To vi- sit,|vi- sit, vi- sit,|vi- sit him~|_ with grace?|
w: is his love!~ _ _|_ How won- drous,|won- drous, won- drous,|won- drous is~|_ his love!|
 C,2 C,2 D,C, D,E, | G,2 G,2 A,G, A,B, | E,2 E,2 A,,2 E,2 | (A,3 G, E,2) E,2 | [A,,A,]8 |] %21
w: |||||
w: |||||
w: |||||

